X: 2
T: The Furze In Bloom
R: jig
M: 6/8
L: 1/8
K: Edor
f|:edB BAB|def e2f|edB BAF|AFE E2f|edB BAB|gfe ~f3|edB BAF|1AFE E2f:|2AFE Bcd||e3 efg|edB d2A|ded dfa|b2a faf|~e3 efg|edB d2f|edB BAF|1AFE Bcd:|2AFE E2f||


Tune 9629	Setting 20074

